svg/Meteorology/thunderstorms/hail/thunderstorm_moderate.svg

<?xml version="1.0" encoding="UTF-8" standalone="no"?>
<!-- Created with Inkscape (http://www.inkscape.org/) -->
<svg
   xmlns:dc="http://purl.org/dc/elements/1.1/"
   xmlns:cc="http://web.resource.org/cc/"
   xmlns:rdf="http://www.w3.org/1999/02/22-rdf-syntax-ns#"
   xmlns:svg="http://www.w3.org/2000/svg"
   xmlns="http://www.w3.org/2000/svg"
   xmlns:sodipodi="http://sodipodi.sourceforge.net/DTD/sodipodi-0.dtd"
   xmlns:inkscape="http://www.inkscape.org/namespaces/inkscape"
   width="744.09448819"
   height="1052.3622047"
   id="svg2"
   sodipodi:version="0.32"
   inkscape:version="0.44.1"
   sodipodi:docbase="C:\Documents and Settings\pc\Desktop\meteo\meteo svg\thunderstorms\hail"
   sodipodi:docname="thunderstorm_moderate.svg">
  <defs
     id="defs4" />
  <sodipodi:namedview
     id="base"
     pagecolor="#ffffff"
     bordercolor="#666666"
     borderopacity="1.0"
     inkscape:pageopacity="0.0"
     inkscape:pageshadow="2"
     inkscape:zoom="1.4"
     inkscape:cx="375"
     inkscape:cy="607.69238"
     inkscape:document-units="px"
     inkscape:current-layer="layer1"
     showgrid="true"
     inkscape:window-width="1280"
     inkscape:window-height="744"
     inkscape:window-x="-4"
     inkscape:window-y="-4" />
  <metadata
     id="metadata7">
    <rdf:RDF>
      <cc:Work
         rdf:about="">
        <dc:format>image/svg+xml</dc:format>
        <dc:type
           rdf:resource="http://purl.org/dc/dcmitype/StillImage" />
      </cc:Work>
    </rdf:RDF>
  </metadata>
  <g
     inkscape:label="Livello 1"
     inkscape:groupmode="layer"
     id="layer1">
    <g
       id="g4792">
      <path
         id="path3539"
         d="M 310.13315,400.50648 L 337.73147,400.50648 L 323.25369,377.1326 L 310.13315,400.50648 z "
         style="fill:none;fill-rule:evenodd;stroke:black;stroke-width:3.58271217;stroke-linecap:butt;stroke-linejoin:miter;stroke-miterlimit:4;stroke-dasharray:none;stroke-opacity:1" />
      <path
         id="path2475"
         d="M 294.17857,528.52386 L 294.53571,411.02386 L 357.75,411.381"
         style="fill:none;fill-rule:evenodd;stroke:black;stroke-width:4.5;stroke-linecap:butt;stroke-linejoin:miter;stroke-miterlimit:4;stroke-dasharray:none;stroke-opacity:1" />
      <g
         transform="matrix(1,0,0,0.910017,41.80484,99.81129)"
         id="g5523">
        <path
           style="fill:none;fill-rule:evenodd;stroke:black;stroke-width:2.13238645;stroke-linecap:butt;stroke-linejoin:miter;stroke-miterlimit:4;stroke-dasharray:none;stroke-opacity:1"
           d="M 277.1429,391.14003 L 315.00004,426.33685 L 296.78575,444.60355 L 278.57147,462.87025"
           id="path2478"
           sodipodi:nodetypes="cccc" />
        <path
           style="fill:black;fill-opacity:1;fill-rule:evenodd;stroke:black;stroke-width:0.6188395px;stroke-linecap:butt;stroke-linejoin:miter;stroke-opacity:1"
           d="M 277.33409,460.29597 L 283.23455,462.83625 L 277.71755,463.70625 L 277.33409,460.29597 z "
           id="path2480" />
      </g>
      <path
         id="path4636"
         d="M 319.17857,457.09529 L 356.67857,412.09529"
         style="fill:none;fill-rule:evenodd;stroke:black;stroke-width:2.29999995;stroke-linecap:butt;stroke-linejoin:miter;stroke-miterlimit:4;stroke-dasharray:none;stroke-opacity:1" />
    </g>
  </g>
</svg>

<svg xmlns="http://www.w3.org/2000/svg" viewBox="0 0 744.09 1052.36"><g fill-rule="evenodd" stroke="#000"><g fill="none"><path d="m310.13 400.51h27.598l-14.478-23.374-13.12 23.374z" stroke-width="3.583"/><path d="m294.18 528.52l.357-117.5 63.21.357" stroke-width="4.5"/></g><g transform="matrix(1 0 0 .91002 41.805 99.81)"><path d="m277.14 391.14l37.857 35.2-18.214 18.267-18.214 18.267" fill="none" stroke-width="2.132"/><path d="m277.33 460.3l5.9 2.54-5.517.87-.383-3.41z" stroke-width=".619"/></g><path d="m319.18 457.1l37.5-45" fill="none" stroke-width="2.3"/></g></svg>
